X:31
T:Tasty borsch by my darling. Air
C:antplat.ru
R:Air
M:3/4
L:1/8
Q:70
K:G
DG|:"Am"A3DGA|"G"B3AGD|1 "Am"E3DEG|"D"A4DG:|2 "Am"E4DE|"G"D4dg|
|:"D"a3dga|"Em"b3agd|1 "C"e3deg|"D"a4dg:|2 "C"e4de|"D"d4||

